icons/arrow-rounded-topright.svg

<svg width="24" height="24" viewBox="0 0 24 24" fill="none" xmlns="http://www.w3.org/2000/svg">
<path fill-rule="evenodd" clip-rule="evenodd" d="M16.6447 7.06965C16.9376 6.77675 17.4125 6.77675 17.7054 7.06965L20.2054 9.56965C20.6983 10.0625 20.6983 10.8374 20.2054 11.3303L17.7054 13.8303C17.4125 14.1232 16.9376 14.1232 16.6447 13.8303C16.3518 13.5374 16.3518 13.0625 16.6447 12.7696L18.9644 10.45L16.6447 8.13031C16.3518 7.83741 16.3518 7.36254 16.6447 7.06965Z" fill="black"/>
<path fill-rule="evenodd" clip-rule="evenodd" d="M3.42505 13.3999C3.42505 11.2857 5.06084 9.6499 7.17505 9.6499H19.775C20.1893 9.6499 20.525 9.98569 20.525 10.3999C20.525 10.8141 20.1893 11.1499 19.775 11.1499H7.17505C5.88926 11.1499 4.92505 12.1141 4.92505 13.3999C4.92505 14.6857 5.88926 15.6499 7.17505 15.6499H11.175C11.5893 15.6499 11.925 15.9857 11.925 16.3999C11.925 16.8141 11.5893 17.1499 11.175 17.1499H7.17505C5.06084 17.1499 3.42505 15.5141 3.42505 13.3999Z" fill="black"/>
</svg>

<svg xmlns="http://www.w3.org/2000/svg" fill="none" viewBox="0 0 24 24">
  <path fill="#000" fill-rule="evenodd" d="M16.645 7.07a.75.75 0 0 1 1.06 0l2.5 2.5a1.233 1.233 0 0 1 0 1.76l-2.5 2.5a.75.75 0 0 1-1.06-1.06l2.32-2.32-2.32-2.32a.75.75 0 0 1 0-1.06Z" clip-rule="evenodd"/>
  <path fill="#000" fill-rule="evenodd" d="M3.425 13.4c0-2.114 1.636-3.75 3.75-3.75h12.6a.75.75 0 1 1 0 1.5h-12.6c-1.286 0-2.25.964-2.25 2.25s.964 2.25 2.25 2.25h4a.75.75 0 1 1 0 1.5h-4c-2.114 0-3.75-1.636-3.75-3.75Z" clip-rule="evenodd"/>
</svg>
